places/user-home-symbolic.svg

<?xml version="1.0" encoding="UTF-8" standalone="no"?>
<!-- Created with Inkscape (http://www.inkscape.org/) -->

<svg
   xmlns:dc="http://purl.org/dc/elements/1.1/"
   xmlns:cc="http://creativecommons.org/ns#"
   xmlns:rdf="http://www.w3.org/1999/02/22-rdf-syntax-ns#"
   xmlns:svg="http://www.w3.org/2000/svg"
   xmlns="http://www.w3.org/2000/svg"
   xmlns:sodipodi="http://sodipodi.sourceforge.net/DTD/sodipodi-0.dtd"
   xmlns:inkscape="http://www.inkscape.org/namespaces/inkscape"
   width="16"
   height="16"
   id="svg4152"
   version="1.1"
   inkscape:version="0.91 r13725"
   viewBox="0 0 16 16"
   sodipodi:docname="user-home-symbolic.svg">
  <defs
     id="defs4154" />
  <sodipodi:namedview
     id="base"
     pagecolor="#ededed"
     bordercolor="#000000"
     borderopacity="0.49803922"
     inkscape:pageopacity="0"
     inkscape:pageshadow="2"
     inkscape:zoom="44.395603"
     inkscape:cx="10.033361"
     inkscape:cy="7.7252159"
     inkscape:current-layer="layer1"
     showgrid="true"
     inkscape:grid-bbox="true"
     inkscape:document-units="px"
     inkscape:showpageshadow="false"
     borderlayer="true"
     inkscape:window-width="1920"
     inkscape:window-height="1012"
     inkscape:window-x="0"
     inkscape:window-y="32"
     inkscape:window-maximized="1"
     showguides="false">
    <inkscape:grid
       type="xygrid"
       id="grid4700"
       color="#000000"
       opacity="0.0627451"
       empcolor="#000000"
       empopacity="0.1254902"
       empspacing="4"
       spacingx="2"
       spacingy="2" />
  </sodipodi:namedview>
  <metadata
     id="metadata4157">
    <rdf:RDF>
      <cc:Work
         rdf:about="">
        <dc:format>image/svg+xml</dc:format>
        <dc:type
           rdf:resource="http://purl.org/dc/dcmitype/StillImage" />
        <dc:title />
      </cc:Work>
    </rdf:RDF>
  </metadata>
  <g
     id="layer1"
     inkscape:label="Layer 1"
     inkscape:groupmode="layer">
    <path
       style="color:#000000;font-style:normal;font-variant:normal;font-weight:normal;font-stretch:normal;font-size:medium;line-height:normal;font-family:sans-serif;text-indent:0;text-align:start;text-decoration:none;text-decoration-line:none;text-decoration-style:solid;text-decoration-color:#000000;letter-spacing:normal;word-spacing:normal;text-transform:none;direction:ltr;block-progression:tb;writing-mode:lr-tb;baseline-shift:baseline;text-anchor:start;white-space:normal;clip-rule:nonzero;display:inline;overflow:visible;visibility:visible;opacity:1;isolation:auto;mix-blend-mode:normal;color-interpolation:sRGB;color-interpolation-filters:linearRGB;solid-color:#000000;solid-opacity:1;fill:#000000;fill-opacity:1;fill-rule:evenodd;stroke:none;stroke-width:2;stroke-linecap:round;stroke-linejoin:round;stroke-miterlimit:4;stroke-dasharray:none;stroke-dashoffset:0;stroke-opacity:1;color-rendering:auto;image-rendering:auto;shape-rendering:auto;text-rendering:auto;enable-background:accumulate"
       d="M 7.984375,1 C 7.7246012,1.0041421 7.4766349,1.1092126 7.2929688,1.2929687 L 2.3925781,6.1933594 C 2.3212155,6.2477272 2.2574928,6.3114499 2.203125,6.3828125 L 0.29296875,8.2929688 C -0.68868272,9.2354776 0.76452245,10.688683 1.7070312,9.7070312 L 2,9.4140625 2,14 c 5.52e-5,0.552262 0.4477381,0.999945 1,1 l 4,0 2,0 4,0 c 0.552262,-5.5e-5 0.999945,-0.447738 1,-1 l 0,-4.5859375 0.292969,0.2929687 c 0.942509,0.9816668 2.395729,-0.4715541 1.414062,-1.4140624 L 13.794922,6.3808594 C 13.740089,6.3086778 13.675697,6.2442861 13.603516,6.1894531 L 8.7070312,1.2929687 C 8.5157079,1.1015569 8.2549779,0.99585558 7.984375,1 Z M 8,3.4140625 l 4,4 L 12,13 10,13 10,10 C 9.9999448,9.4477381 9.5522619,9.0000552 9,9 L 7,9 c -0.5522619,5.52e-5 -0.9999448,0.4477381 -1,1 l 0,3 -2,0 0,-5.5859375 z"
       id="path4135"
       inkscape:connector-curvature="0"
       sodipodi:nodetypes="cccccccccccccccccccccccccccccccc" />
  </g>
</svg>

<svg xmlns="http://www.w3.org/2000/svg" width="16" height="16">
    <path fill-rule="evenodd" d="M7.984 1a1 1 0 0 0-.691.293l-4.9 4.9a1 1 0 0 0-.19.19l-1.91 1.91c-.982.942.472 2.396 1.414 1.414L2 9.414V14a1 1 0 0 0 1 1h10a1 1 0 0 0 1-1V9.414l.293.293c.942.982 2.396-.472 1.414-1.414l-1.912-1.912a1 1 0 0 0-.191-.192L8.707 1.293A1 1 0 0 0 7.984 1zM8 3.414l4 4V13h-2v-3a1 1 0 0 0-1-1H7a1 1 0 0 0-1 1v3H4V7.414z"/>
</svg>
